X:23
T:Kerry Cow, The
R:polka
S:Mary Bergin
H:See also #108
Z:id:hn-polka-23
M:2/4
L:1/8
K:D
A>B AG|FA d2|G>A GF|EF G/F/E|A>B AG|FA de/d/|cA GE|D2 D2:|
|:d>e fd|cA A>d|BG GA/B/|cA A2|d>e fd|cA Ad|BG AF|D2 D2:|
<end>
<start>
